assets/logo-light.svg

<svg width="1641" height="171" viewBox="0 0 1641 171" fill="none" xmlns="http://www.w3.org/2000/svg">
<path d="M698.678 132.408C674.655 132.408 657.404 114.511 657.404 89.8433C657.404 65.3364 674.655 47.6012 698.034 47.6012C721.412 47.6012 738.825 65.3364 738.825 89.8433C738.825 91.1332 738.663 93.0679 738.502 94.6802H675.945C677.719 107.901 687.07 117.091 699.323 117.091C708.03 117.091 716.091 112.415 720.122 105.483L734.633 114.834C727.377 125.314 713.35 132.408 698.678 132.408ZM676.751 80.9757H719.477C716.575 70.1733 708.352 62.918 698.034 62.918C687.715 62.918 679.653 70.1733 676.751 80.9757Z" fill="black"/>
<path d="M621.717 132.136V49.7158H640.414V136.555C640.414 147.943 638.204 156.272 633.615 161.201C628.345 167.15 621.037 170.04 611.688 170.04L606.589 153.213C612.198 153.213 616.107 151.683 618.317 148.623C620.527 145.394 621.717 139.955 621.717 132.136Z" fill="black"/>
<path d="M642.775 18.937C642.775 25.4245 637.516 30.6837 631.028 30.6837C624.541 30.6837 619.282 25.4245 619.282 18.937C619.282 12.4494 624.541 7.19024 631.028 7.19024C637.516 7.19024 642.775 12.4494 642.775 18.937Z" fill="black"/>
<path d="M761.271 18.9323H779.973V49.6972H796.258V65.014H779.973V130.312H761.271V65.014H748.103V49.6972H761.271V18.9323Z" fill="black"/>
<path fill-rule="evenodd" clip-rule="evenodd" d="M362.464 130.312L377.585 99.7003H435.069L450.006 130.312H469.512L406.326 1.05191L343.14 130.312H362.464ZM385.419 83.6912L406.326 41.0897L427.232 83.6912H385.419Z" fill="black"/>
<path d="M603.799 77.2245C597.947 69.7626 590.881 63.7125 577.685 63.7125C563.98 63.7125 553.984 74.6877 553.984 90.0045C553.984 105.16 563.98 116.285 577.685 116.285C590.881 116.285 597.947 110.095 603.799 102.649V123.858C596.769 129.243 587.816 132.408 577.685 132.408C553.339 132.408 535.765 114.511 535.765 90.0045C535.765 65.3364 553.339 47.6011 577.685 47.6011C587.782 47.6011 596.782 50.6715 603.799 56.0248V77.2245Z" fill="black"/>
<path d="M499.025 130.312H480.37V49.7368H499.025V57.4568C502.619 53.4299 505.61 51.076 508.04 49.931C510.916 48.5761 514.094 47.702 517.826 47.702C521.557 47.702 527.857 49.228 533.115 52.4504L524.635 69.4102C521.073 66.8662 517.681 65.679 514.289 65.679C504.113 65.679 499.025 73.311 499.025 88.5748V130.312Z" fill="black"/>
<path d="M248.288 72.9496C261.051 76.2109 271.6 78.8252 293.557 83.6942C271.6 88.5632 261.051 91.1775 248.288 94.4389C243.993 95.5362 240.636 98.8927 239.539 103.187C236.278 115.947 233.663 126.501 228.795 148.456C223.926 126.501 221.312 115.947 218.051 103.187C216.953 98.8927 213.596 95.5362 209.302 94.4389C196.538 91.1775 185.99 88.5632 164.033 83.6942C185.99 78.8252 196.538 76.2109 209.302 72.9496C213.596 71.8522 216.953 68.4958 218.051 64.2012C221.312 51.4417 223.926 40.8879 228.795 18.9323C233.663 40.8879 236.278 51.4417 239.539 64.2012C240.636 68.4958 243.993 71.8522 248.288 72.9496Z" fill="black"/>
<path fill-rule="evenodd" clip-rule="evenodd" d="M136.204 80.1525L139.747 83.6954L136.204 87.2384C103.583 84.8418 72.851 84.5031 23.3344 83.9574C16.0228 83.8769 8.30158 83.7918 0.104248 83.6949C8.17822 83.5997 15.7903 83.5158 23.004 83.4363C72.7144 82.8886 103.511 82.5492 136.204 80.1525Z" fill="black"/>
<path d="M852.661 149.727L899.698 8.10266H910.946L864.25 149.727H852.661Z" fill="#D1CBD8"/>
<path d="M977.998 128.017V45.9999H986.669V128.017H977.998ZM986.083 128.017V120.167H1025.92V128.017H986.083ZM986.083 89.7035V81.8533H1022.76V89.7035H986.083ZM986.083 53.8502V45.9999H1025.8V53.8502H986.083ZM1037.14 128.017L1061.05 94.2731L1077.92 69.4335H1087.76L1065.62 100.952L1047.22 128.017H1037.14ZM1079.21 128.017L1061.05 100.952L1038.67 69.4335H1048.51L1065.38 94.2731L1089.17 128.017H1079.21ZM1134.74 128.017L1134.15 118.761V96.8508C1134.15 92.086 1133.61 88.1413 1132.51 85.0168C1131.42 81.8142 1129.74 79.4318 1127.47 77.8696C1125.21 76.3073 1122.24 75.5262 1118.57 75.5262C1115.05 75.5262 1111.97 76.2292 1109.31 77.6353C1106.73 79.0413 1104.66 81.1893 1103.1 84.0795L1095.72 80.916C1097.36 78.182 1099.28 75.8387 1101.46 73.8859C1103.65 71.9331 1106.19 70.488 1109.08 69.5507C1111.97 68.5352 1115.13 68.0275 1118.57 68.0275C1123.96 68.0275 1128.37 69.082 1131.81 71.191C1135.32 73.3 1137.94 76.4636 1139.66 80.6816C1141.46 84.8997 1142.35 90.1722 1142.35 96.4993V128.017H1134.74ZM1116.93 129.423C1110.05 129.423 1104.66 127.861 1100.76 124.737C1096.93 121.534 1095.02 117.121 1095.02 111.497C1095.02 105.638 1096.97 101.108 1100.88 97.9053C1104.78 94.7027 1110.21 93.1014 1117.16 93.1014H1134.39V100.249H1118.8C1113.26 100.249 1109.27 101.225 1106.85 103.178C1104.43 105.131 1103.22 107.865 1103.22 111.38C1103.22 114.738 1104.43 117.355 1106.85 119.23C1109.27 121.105 1112.63 122.042 1116.93 122.042C1120.52 122.042 1123.61 121.261 1126.18 119.699C1128.76 118.058 1130.72 115.832 1132.04 113.02C1133.45 110.13 1134.15 106.81 1134.15 103.061H1140.13C1140.13 111.028 1138.1 117.433 1134.03 122.276C1130.05 127.041 1124.35 129.423 1116.93 129.423ZM1157.69 128.017V69.4335H1165.3L1165.77 80.2129V128.017H1157.69ZM1199.28 128.017V98.0225L1207.49 94.5074V128.017H1199.28ZM1240.88 128.017V98.0225L1249.08 94.5074V128.017H1240.88ZM1199.28 98.0225C1199.28 91.8516 1198.54 87.204 1197.06 84.0795C1195.65 80.8769 1193.7 78.6898 1191.2 77.5181C1188.7 76.2683 1185.89 75.6434 1182.76 75.6434C1177.45 75.6434 1173.27 77.5962 1170.23 81.5018C1167.26 85.4074 1165.77 90.8362 1165.77 97.7881H1161.32C1161.32 91.5392 1162.22 86.2276 1164.02 81.8533C1165.81 77.4009 1168.43 74.003 1171.87 71.6597C1175.3 69.2382 1179.48 68.0275 1184.4 68.0275C1191.43 68.0275 1197.06 70.2146 1201.28 74.5889C1205.49 78.9632 1207.56 85.6027 1207.49 94.5074L1199.28 98.0225ZM1240.88 98.0225C1240.88 91.8516 1240.14 87.204 1238.65 84.0795C1237.25 80.8769 1235.29 78.6898 1232.79 77.5181C1230.37 76.2683 1227.56 75.6434 1224.36 75.6434C1219.05 75.6434 1214.91 77.5962 1211.94 81.5018C1208.97 85.4074 1207.49 90.8362 1207.49 97.7881H1203.03C1203.03 91.5392 1203.89 86.2276 1205.61 81.8533C1207.41 77.4009 1210.02 74.003 1213.46 71.6597C1216.9 69.2382 1221.08 68.0275 1226 68.0275C1233.03 68.0275 1238.65 70.2146 1242.87 74.5889C1247.09 78.9632 1249.16 85.6027 1249.08 94.5074L1240.88 98.0225ZM1265.03 151.451V69.4335H1272.65L1273.12 80.2129V151.451H1265.03ZM1293.39 129.423C1288.46 129.423 1284.09 128.135 1280.26 125.557C1276.51 122.901 1273.58 119.269 1271.47 114.66C1269.44 109.974 1268.43 104.662 1268.43 98.7255C1268.43 92.7109 1269.44 87.3992 1271.47 82.7906C1273.58 78.182 1276.51 74.5889 1280.26 72.0112C1284.09 69.3554 1288.46 68.0275 1293.39 68.0275C1298.54 68.0275 1303.11 69.3554 1307.09 72.0112C1311.08 74.5889 1314.2 78.182 1316.47 82.7906C1318.73 87.3992 1319.87 92.7109 1319.87 98.7255C1319.87 104.662 1318.73 109.974 1316.47 114.66C1314.2 119.269 1311.08 122.901 1307.09 125.557C1303.11 128.135 1298.54 129.423 1293.39 129.423ZM1291.63 122.042C1295.53 122.042 1298.97 121.065 1301.94 119.113C1304.91 117.082 1307.25 114.309 1308.97 110.794C1310.69 107.279 1311.55 103.256 1311.55 98.7255C1311.55 94.195 1310.69 90.1722 1308.97 86.6572C1307.33 83.1421 1305.02 80.4082 1302.06 78.4554C1299.09 76.4245 1295.65 75.4091 1291.74 75.4091C1288.15 75.4091 1284.95 76.4245 1282.14 78.4554C1279.32 80.4082 1277.1 83.1421 1275.46 86.6572C1273.9 90.1722 1273.12 94.195 1273.12 98.7255C1273.12 103.256 1273.9 107.279 1275.46 110.794C1277.1 114.309 1279.29 117.082 1282.02 119.113C1284.83 121.065 1288.03 122.042 1291.63 122.042ZM1333.44 128.017V45.9999H1341.53V128.017H1333.44ZM1384.04 129.423C1378.42 129.423 1373.42 128.135 1369.04 125.557C1364.67 122.901 1361.23 119.269 1358.73 114.66C1356.31 110.052 1355.1 104.74 1355.1 98.7255C1355.1 92.7109 1356.31 87.3992 1358.73 82.7906C1361.23 78.182 1364.63 74.5889 1368.92 72.0112C1373.22 69.3554 1378.14 68.0275 1383.69 68.0275C1389.16 68.0275 1393.84 69.3944 1397.75 72.1284C1401.65 74.7842 1404.66 78.5335 1406.77 83.3765C1408.96 88.1413 1410.05 93.6873 1410.05 100.014H1401.73C1401.73 95.0152 1401.03 90.719 1399.62 87.1259C1398.29 83.4546 1396.26 80.6035 1393.53 78.5726C1390.87 76.5417 1387.55 75.5262 1383.57 75.5262C1379.59 75.5262 1376.07 76.5026 1373.03 78.4554C1369.98 80.4082 1367.6 83.1421 1365.88 86.6572C1364.16 90.0941 1363.3 94.1559 1363.3 98.8426C1363.3 103.373 1364.2 107.396 1366 110.911C1367.87 114.348 1370.37 117.043 1373.49 118.996C1376.62 120.948 1380.21 121.925 1384.27 121.925C1388.57 121.925 1392.2 120.87 1395.17 118.761C1398.22 116.652 1400.56 113.918 1402.2 110.559L1409.35 114.543C1407.79 117.433 1405.79 120.011 1403.37 122.276C1401.03 124.541 1398.22 126.299 1394.94 127.549C1391.66 128.799 1388.02 129.423 1384.04 129.423ZM1360.61 100.014V92.7499H1404.66V100.014H1360.61ZM1487.73 128.017L1487.14 118.761V96.8508C1487.14 92.086 1486.6 88.1413 1485.5 85.0168C1484.41 81.8142 1482.73 79.4318 1480.46 77.8696C1478.2 76.3073 1475.23 75.5262 1471.56 75.5262C1468.04 75.5262 1464.96 76.2292 1462.3 77.6353C1459.73 79.0413 1457.66 81.1893 1456.09 84.0795L1448.71 80.916C1450.35 78.182 1452.27 75.8387 1454.45 73.8859C1456.64 71.9331 1459.18 70.488 1462.07 69.5507C1464.96 68.5352 1468.12 68.0275 1471.56 68.0275C1476.95 68.0275 1481.36 69.082 1484.8 71.191C1488.31 73.3 1490.93 76.4636 1492.65 80.6816C1494.45 84.8997 1495.35 90.1722 1495.35 96.4993V128.017H1487.73ZM1469.92 129.423C1463.05 129.423 1457.66 127.861 1453.75 124.737C1449.92 121.534 1448.01 117.121 1448.01 111.497C1448.01 105.638 1449.96 101.108 1453.87 97.9053C1457.77 94.7027 1463.2 93.1014 1470.15 93.1014H1487.38V100.249H1471.79C1466.25 100.249 1462.26 101.225 1459.84 103.178C1457.42 105.131 1456.21 107.865 1456.21 111.38C1456.21 114.738 1457.42 117.355 1459.84 119.23C1462.26 121.105 1465.62 122.042 1469.92 122.042C1473.51 122.042 1476.6 121.261 1479.18 119.699C1481.75 118.058 1483.71 115.832 1485.03 113.02C1486.44 110.13 1487.14 106.81 1487.14 103.061H1493.12C1493.12 111.028 1491.09 117.433 1487.03 122.276C1483.04 127.041 1477.34 129.423 1469.92 129.423ZM1511.27 151.451V69.4335H1518.88L1519.35 80.2129V151.451H1511.27ZM1539.62 129.423C1534.7 129.423 1530.33 128.135 1526.5 125.557C1522.75 122.901 1519.82 119.269 1517.71 114.66C1515.68 109.974 1514.66 104.662 1514.66 98.7255C1514.66 92.7109 1515.68 87.3992 1517.71 82.7906C1519.82 78.182 1522.75 74.5889 1526.5 72.0112C1530.33 69.3554 1534.7 68.0275 1539.62 68.0275C1544.78 68.0275 1549.35 69.3554 1553.33 72.0112C1557.31 74.5889 1560.44 78.182 1562.7 82.7906C1564.97 87.3992 1566.1 92.7109 1566.1 98.7255C1566.1 104.662 1564.97 109.974 1562.7 114.66C1560.44 119.269 1557.31 122.901 1553.33 125.557C1549.35 128.135 1544.78 129.423 1539.62 129.423ZM1537.86 122.042C1541.77 122.042 1545.21 121.065 1548.17 119.113C1551.14 117.082 1553.49 114.309 1555.2 110.794C1556.92 107.279 1557.78 103.256 1557.78 98.7255C1557.78 94.195 1556.92 90.1722 1555.2 86.6572C1553.56 83.1421 1551.26 80.4082 1548.29 78.4554C1545.32 76.4245 1541.89 75.4091 1537.98 75.4091C1534.39 75.4091 1531.18 76.4245 1528.37 78.4554C1525.56 80.4082 1523.33 83.1421 1521.69 86.6572C1520.13 90.1722 1519.35 94.195 1519.35 98.7255C1519.35 103.256 1520.13 107.279 1521.69 110.794C1523.33 114.309 1525.52 117.082 1528.26 119.113C1531.07 121.065 1534.27 122.042 1537.86 122.042ZM1580.26 151.451V69.4335H1587.88L1588.35 80.2129V151.451H1580.26ZM1608.62 129.423C1603.7 129.423 1599.32 128.135 1595.49 125.557C1591.74 122.901 1588.82 119.269 1586.71 114.66C1584.68 109.974 1583.66 104.662 1583.66 98.7255C1583.66 92.7109 1584.68 87.3992 1586.71 82.7906C1588.82 78.182 1591.74 74.5889 1595.49 72.0112C1599.32 69.3554 1603.7 68.0275 1608.62 68.0275C1613.77 68.0275 1618.34 69.3554 1622.33 72.0112C1626.31 74.5889 1629.43 78.182 1631.7 82.7906C1633.96 87.3992 1635.1 92.7109 1635.1 98.7255C1635.1 104.662 1633.96 109.974 1631.7 114.66C1629.43 119.269 1626.31 122.901 1622.33 125.557C1618.34 128.135 1613.77 129.423 1608.62 129.423ZM1606.86 122.042C1610.77 122.042 1614.2 121.065 1617.17 119.113C1620.14 117.082 1622.48 114.309 1624.2 110.794C1625.92 107.279 1626.78 103.256 1626.78 98.7255C1626.78 94.195 1625.92 90.1722 1624.2 86.6572C1622.56 83.1421 1620.26 80.4082 1617.29 78.4554C1614.32 76.4245 1610.88 75.4091 1606.98 75.4091C1603.38 75.4091 1600.18 76.4245 1597.37 78.4554C1594.56 80.4082 1592.33 83.1421 1590.69 86.6572C1589.13 90.1722 1588.35 94.195 1588.35 98.7255C1588.35 103.256 1589.13 107.279 1590.69 110.794C1592.33 114.309 1594.52 117.082 1597.25 119.113C1600.06 121.065 1603.27 122.042 1606.86 122.042Z" fill="#3D3A45"/>
</svg>

<svg xmlns="http://www.w3.org/2000/svg" width="1641" height="171" fill="none" viewBox="0 0 1641 171"><path fill="#000" d="M698.678 132.408c-24.023 0-41.274-17.897-41.274-42.565 0-24.507 17.251-42.242 40.63-42.242 23.378 0 40.791 17.735 40.791 42.242 0 1.29-.162 3.225-.323 4.837h-62.557c1.774 13.221 11.125 22.411 23.378 22.411 8.707 0 16.768-4.676 20.799-11.608l14.511 9.351c-7.256 10.48-21.283 17.574-35.955 17.574m-21.927-51.432h42.726c-2.902-10.803-11.125-18.058-21.443-18.058s-18.381 7.255-21.283 18.058m-55.034 51.16v-82.42h18.697v86.839c0 11.388-2.21 19.717-6.799 24.646-5.27 5.949-12.578 8.839-21.927 8.839l-5.099-16.827q8.413 0 11.728-4.59c2.21-3.229 3.4-8.668 3.4-16.487m21.058-113.199c0 6.487-5.259 11.747-11.747 11.747s-11.746-5.26-11.746-11.747c0-6.488 5.259-11.747 11.746-11.747 6.488 0 11.747 5.26 11.747 11.747m118.496-.005h18.702v30.765h16.285v15.317h-16.285v65.298h-18.702V65.014h-13.168V49.697h13.168z"/><path fill="#000" fill-rule="evenodd" d="M362.464 130.312 377.585 99.7h57.484l14.937 30.612h19.506L406.326 1.052l-63.186 129.26zm22.955-46.62 20.907-42.602 20.906 42.601z" clip-rule="evenodd"/><path fill="#000" d="M603.799 77.225c-5.852-7.462-12.918-13.512-26.114-13.512-13.705 0-23.701 10.975-23.701 26.291 0 15.156 9.996 26.281 23.701 26.281 13.196 0 20.262-6.19 26.114-13.636v21.209c-7.03 5.385-15.983 8.55-26.114 8.55-24.346 0-41.92-17.897-41.92-42.403 0-24.669 17.574-42.404 41.92-42.404 10.097 0 19.097 3.07 26.114 8.424zm-104.774 53.087H480.37V49.737h18.655v7.72c3.594-4.027 6.585-6.381 9.015-7.526 2.876-1.355 6.054-2.229 9.786-2.229s10.031 1.526 15.289 4.748l-8.48 16.96c-3.562-2.544-6.954-3.731-10.346-3.731q-15.264 0-15.264 22.896zM248.288 72.95c12.763 3.26 23.312 5.875 45.269 10.744-21.957 4.87-32.506 7.483-45.269 10.745a12.13 12.13 0 0 0-8.749 8.748c-3.261 12.76-5.876 23.314-10.744 45.269-4.869-21.955-7.483-32.509-10.744-45.269a12.14 12.14 0 0 0-8.749-8.748c-12.764-3.261-23.312-5.876-45.269-10.745 21.957-4.869 32.505-7.483 45.269-10.744a12.14 12.14 0 0 0 8.749-8.749c3.261-12.76 5.875-23.313 10.744-45.269 4.868 21.956 7.483 32.51 10.744 45.27a12.13 12.13 0 0 0 8.749 8.748"/><path fill="#000" fill-rule="evenodd" d="m136.204 80.153 3.543 3.542-3.543 3.543c-32.621-2.396-63.353-2.735-112.87-3.28-7.311-.081-15.032-.166-23.23-.263 8.074-.095 15.686-.18 22.9-.259 49.71-.547 80.507-.887 113.2-3.284" clip-rule="evenodd"/><path fill="#D1CBD8" d="M852.661 149.727 899.698 8.103h11.248L864.25 149.727z"/><path fill="#3D3A45" d="M977.998 128.017V46h8.671v82.017zm8.085 0v-7.85h39.837v7.85zm0-38.313v-7.85h36.677v7.85zm0-35.854V46h39.717v7.85zm51.057 74.167 23.91-33.744 16.87-24.84h9.84l-22.14 31.519-18.4 27.065zm42.07 0-18.16-27.065-22.38-31.519h9.84l16.87 24.84 23.79 33.744zm55.53 0-.59-9.256v-21.91c0-4.765-.54-8.71-1.64-11.834q-1.635-4.804-5.04-7.147c-2.26-1.563-5.23-2.344-8.9-2.344-3.52 0-6.6.703-9.26 2.11q-3.87 2.107-6.21 6.444l-7.38-3.164c1.64-2.734 3.56-5.077 5.74-7.03q3.285-2.93 7.62-4.335c2.89-1.016 6.05-1.523 9.49-1.523 5.39 0 9.8 1.054 13.24 3.163 3.51 2.109 6.13 5.273 7.85 9.49 1.8 4.219 2.69 9.491 2.69 15.818v31.518zm-17.81 1.406q-10.32 0-16.17-4.686c-3.83-3.203-5.74-7.616-5.74-13.24 0-5.859 1.95-10.389 5.86-13.592 3.9-3.202 9.33-4.804 16.28-4.804h17.23v7.148h-15.59c-5.54 0-9.53.976-11.95 2.929q-3.63 2.93-3.63 8.202 0 5.037 3.63 7.85t10.08 2.812c3.59 0 6.68-.781 9.25-2.343 2.58-1.641 4.54-3.867 5.86-6.679 1.41-2.89 2.11-6.21 2.11-9.959h5.98c0 7.967-2.03 14.372-6.1 19.215q-5.97 7.147-17.1 7.147m40.76-1.406V69.434h7.61l.47 10.779v47.804zm41.59 0V98.022l8.21-3.515v33.51zm41.6 0V98.022l8.2-3.515v33.51zm-41.6-29.995q0-9.255-2.22-13.943c-1.41-3.202-3.36-5.39-5.86-6.56-2.5-1.25-5.31-1.876-8.44-1.876-5.31 0-9.49 1.953-12.53 5.859-2.97 3.905-4.46 9.334-4.46 16.286h-4.45q0-9.373 2.7-15.935c1.79-4.452 4.41-7.85 7.85-10.193 3.43-2.422 7.61-3.632 12.53-3.632 7.03 0 12.66 2.187 16.88 6.56q6.315 6.563 6.21 19.92zm41.6 0c0-6.17-.74-10.818-2.23-13.943-1.4-3.202-3.36-5.39-5.86-6.56q-3.63-1.876-8.43-1.876-7.965 0-12.42 5.859c-2.97 3.905-4.45 9.334-4.45 16.286h-4.46q0-9.373 2.58-15.935c1.8-4.452 4.41-7.85 7.85-10.193q5.16-3.632 12.54-3.632c7.03 0 12.65 2.187 16.87 6.56q6.33 6.563 6.21 19.92zm24.15 53.429V69.434h7.62l.47 10.779v71.238zm28.36-22.028c-4.93 0-9.3-1.288-13.13-3.866q-5.625-3.984-8.79-10.897c-2.03-4.686-3.04-9.998-3.04-15.934 0-6.015 1.01-11.327 3.04-15.935q3.165-6.913 8.79-10.78c3.83-2.656 8.2-3.983 13.13-3.983 5.15 0 9.72 1.327 13.7 3.983 3.99 2.578 7.11 6.171 9.38 10.78 2.26 4.608 3.4 9.92 3.4 15.935 0 5.936-1.14 11.248-3.4 15.934-2.27 4.609-5.39 8.241-9.38 10.897-3.98 2.578-8.55 3.866-13.7 3.866m-1.76-7.381c3.9 0 7.34-.977 10.31-2.929 2.97-2.031 5.31-4.804 7.03-8.319q2.58-5.273 2.58-12.068 0-6.797-2.58-12.069c-1.64-3.515-3.95-6.249-6.91-8.202q-4.455-3.046-10.32-3.046-5.385 0-9.6 3.046c-2.82 1.953-5.04 4.687-6.68 8.202q-2.34 5.273-2.34 12.069 0 6.795 2.34 12.068c1.64 3.515 3.83 6.288 6.56 8.319 2.81 1.952 6.01 2.929 9.61 2.929m41.81 5.975V46h8.09v82.017zm50.6 1.406q-8.43 0-15-3.866c-4.37-2.656-7.81-6.288-10.31-10.897q-3.63-6.913-3.63-15.934 0-9.023 3.63-15.935c2.5-4.609 5.9-8.202 10.19-10.78 4.3-2.656 9.22-3.983 14.77-3.983 5.47 0 10.15 1.366 14.06 4.1 3.9 2.656 6.91 6.406 9.02 11.248 2.19 4.765 3.28 10.311 3.28 16.638h-8.32c0-4.999-.7-9.295-2.11-12.888q-1.995-5.507-6.09-8.553-3.99-3.047-9.96-3.047c-3.98 0-7.5.977-10.54 2.93-3.05 1.952-5.43 4.686-7.15 8.201q-2.58 5.156-2.58 12.186 0 6.795 2.7 12.068c1.87 3.437 4.37 6.132 7.49 8.085 3.13 1.952 6.72 2.929 10.78 2.929 4.3 0 7.93-1.055 10.9-3.164 3.05-2.109 5.39-4.843 7.03-8.202l7.15 3.984a30.2 30.2 0 0 1-5.98 7.733q-3.51 3.398-8.43 5.273c-3.28 1.25-6.92 1.874-10.9 1.874m-23.43-29.409V92.75h44.05v7.264zm127.12 28.003-.59-9.256v-21.91c0-4.765-.54-8.71-1.64-11.834q-1.635-4.804-5.04-7.147c-2.26-1.563-5.23-2.344-8.9-2.344-3.52 0-6.6.703-9.26 2.11q-3.855 2.107-6.21 6.444l-7.38-3.164c1.64-2.734 3.56-5.077 5.74-7.03q3.285-2.93 7.62-4.335c2.89-1.016 6.05-1.523 9.49-1.523 5.39 0 9.8 1.054 13.24 3.163 3.51 2.109 6.13 5.273 7.85 9.49q2.7 6.328 2.7 15.818v31.518zm-17.81 1.406q-10.305 0-16.17-4.686c-3.83-3.203-5.74-7.616-5.74-13.24 0-5.859 1.95-10.389 5.86-13.592 3.9-3.202 9.33-4.804 16.28-4.804h17.23v7.148h-15.59c-5.54 0-9.53.976-11.95 2.929q-3.63 2.93-3.63 8.202 0 5.037 3.63 7.85t10.08 2.812c3.59 0 6.68-.781 9.26-2.343 2.57-1.641 4.53-3.867 5.85-6.679 1.41-2.89 2.11-6.21 2.11-9.959h5.98q0 11.95-6.09 19.215c-3.99 4.765-9.69 7.147-17.11 7.147m41.35 22.028V69.434h7.61l.47 10.779v71.238zm28.35-22.028c-4.92 0-9.29-1.288-13.12-3.866q-5.625-3.984-8.79-10.897c-2.03-4.686-3.05-9.998-3.05-15.934 0-6.015 1.02-11.327 3.05-15.935q3.165-6.913 8.79-10.78c3.83-2.656 8.2-3.983 13.12-3.983q7.74 0 13.71 3.983c3.98 2.578 7.11 6.171 9.37 10.78 2.27 4.608 3.4 9.92 3.4 15.935 0 5.936-1.13 11.248-3.4 15.934-2.26 4.609-5.39 8.241-9.37 10.897q-5.97 3.866-13.71 3.866m-1.76-7.381c3.91 0 7.35-.977 10.31-2.929 2.97-2.031 5.32-4.804 7.03-8.319q2.58-5.273 2.58-12.068 0-6.797-2.58-12.069c-1.64-3.515-3.94-6.249-6.91-8.202-2.97-2.03-6.4-3.046-10.31-3.046-3.59 0-6.8 1.015-9.61 3.046-2.81 1.953-5.04 4.687-6.68 8.202q-2.34 5.273-2.34 12.069 0 6.795 2.34 12.068 2.46 5.273 6.57 8.319 4.215 2.928 9.6 2.929m42.4 29.409V69.434h7.62l.47 10.779v71.238zm28.36-22.028c-4.92 0-9.3-1.288-13.13-3.866-3.75-2.656-6.67-6.288-8.78-10.897-2.03-4.686-3.05-9.998-3.05-15.934 0-6.015 1.02-11.327 3.05-15.935 2.11-4.609 5.03-8.202 8.78-10.78 3.83-2.656 8.21-3.983 13.13-3.983q7.725 0 13.71 3.983c3.98 2.578 7.1 6.171 9.37 10.78 2.26 4.608 3.4 9.92 3.4 15.935 0 5.936-1.14 11.248-3.4 15.934-2.27 4.609-5.39 8.241-9.37 10.897q-5.985 3.866-13.71 3.866m-1.76-7.381c3.91 0 7.34-.977 10.31-2.929 2.97-2.031 5.31-4.804 7.03-8.319q2.58-5.273 2.58-12.068 0-6.797-2.58-12.069c-1.64-3.515-3.94-6.249-6.91-8.202-2.97-2.03-6.41-3.046-10.31-3.046-3.6 0-6.8 1.015-9.61 3.046-2.81 1.953-5.04 4.687-6.68 8.202q-2.34 5.273-2.34 12.069 0 6.795 2.34 12.068c1.64 3.515 3.83 6.288 6.56 8.319 2.81 1.952 6.02 2.929 9.61 2.929"/></svg>
